X: 5210
T: Triple Happiness
P: Triple Happiness
C: Hiroko Kokai
S: RSCDS 52-10
R: strathspey
Z: 2019 John Chambers <jc:trillian.mit.edu>
M: C
L: 1/8
K: D
|: A |\
"D"f2 f<a "C#/A"e2 e<a | "Bm"d>c     d>f  "A7"e<A A2 |\
"D"f2 f<a   "A7"e2 e<a |  "D"d>e "E7"f>^g "A7"a2  A2 |
%
"D"f2 f<a  "C#/A"e2  e<a | "Bm" d>c     d>f  "A7"e<A A2 |\
"G"B>c d>e "F#/D"f<A a>f | "Em7"e<d "A7"f>e   "D"d2 "A7"d>e |
%
"D"f<a a>b "Bm"a>f e>d | "Em" e<d g>f "A7"e<A A2 |\
"D"f<a a>b "Bm"a>f e>d | "Em7"e<d g>f "A" e2  A2 |
%
"F#m"f<a a>b "Bm"a>f e>d | "Em"B>d g>B "A7"B<A A>G |\
"D"F>G "E/A7"A>B "F#/D"A>d "Bm"a>f | "Em7" e<d "A7"f>e "D"d3 :|
